!!!OTL: Sourwood Mountain
!!!ARE: United States of America; Kentucky
!!!OCL: Ralph Rigby
!!!AMD: Pentatonic
**kern
*>[A,A,B,B]
*>norep[A,B]
*>A
=1-
*clefG2
*k[b-]
*M2/4
{8a/L
16a/L
16a/JJ
16f/LL
16f/J
8f/J
=2
8g/L
8f/J
8d/L
8c/J}
=3
{8.f/L
16f/Jk
8a/L
8cc/J
=4
16a/LL
16a/
16g/
16g/JJ
4f/}
=5:|!|:
*>B
{8cc\L
8cc\J
8cc\L
8cc\J
=6
8dd\L
8ff\J
8dd\L
8a\J}
=7
{8.cc\L
16cc\Jk
8cc\L
8dd\J
=8
16a/LL
16a/
16g/
16g/JJ
4f/}
==:|!
*-
